X: 903
T: Cock of the North
R: Jig
M: 6/8
I: scale 0.85
L: 1/8
K: G
"G"B2B BAG|B2d "C"e2d|B2B BAG|"D"A3 d2c|"G"B2B BAG|Bcd "C"e2d|"G"B2B "D"ABA|"G"G3-G3:|
|:"G"g2d "C"e2d|"G"g2d "C"e2d|"G"B2B "Em"BAG|"Am"A3-"D"A3|"G"g2d "C"e2d|"G"g2d "C"e2d|"G"B2B "D"ABA|"G"G3-G3:|]

